X:211
T:Roaring Jelly #3
C:Joe Buchanan's Scottish Tome - Page 283.2
I:283 2
Z:Carl Allison
R:Jig
L:1/8
M:6/8
K:D
A, | DED F2 A | d2 f ecA | G2 B F2 A | E2 F GFE | 
DED F2 A | d2 f ecA | Bgf edc | d3 d2 :| 
a | a2 f f2 d | A2 a agf | g2 e e2 c | A2 g gfe |
f2 d g2 e | a2 f bag | fed edc | d3 d2 a |
aff fed | Adf agf | gee ecA | Ace gfe |
fed gfe | agf bag | fed edc | d3 d2 |] 

